lib/components/Logo/assets/LogoNewOffice.svg

<svg width="137" height="14" viewBox="0 0 137 14" fill="none" xmlns="http://www.w3.org/2000/svg">
<path d="M80.9482 11.7249C81.6325 11.7331 82.3119 11.6093 82.9493 11.3604C83.5414 11.13 84.079 10.7787 84.5277 10.3288C84.9782 9.87241 85.3306 9.32866 85.5632 8.731C86.0545 7.39411 86.0545 5.92607 85.5632 4.58918C85.3307 3.99034 84.9783 3.4453 84.5277 2.98751C84.079 2.53763 83.5414 2.18629 82.9493 1.95593C81.6581 1.46988 80.2343 1.46988 78.9432 1.95593C78.351 2.18629 77.8135 2.53763 77.3648 2.98751C76.9142 3.44455 76.563 3.98987 76.3332 4.58918C75.8368 5.92516 75.8368 7.39503 76.3332 8.731C76.5634 9.32893 76.9146 9.87288 77.3648 10.3288C77.8135 10.7787 78.351 11.13 78.9432 11.3604C79.5819 11.6094 80.2627 11.7331 80.9482 11.7249ZM80.9482 13.2374C80.042 13.2468 79.1426 13.0809 78.2994 12.7487C77.5156 12.4393 76.8031 11.9735 76.2053 11.3798C75.6128 10.7837 75.1448 10.0758 74.8285 9.2972C74.1613 7.60108 74.1613 5.71521 74.8285 4.01909C75.1448 3.24163 75.6128 2.53497 76.2053 1.94042C76.8018 1.345 77.5147 0.878978 78.2994 0.571443C79.1423 0.238064 80.0418 0.0708246 80.9482 0.0789261C81.8509 0.0703643 82.7465 0.237647 83.5853 0.571443C84.3696 0.880861 85.0832 1.34584 85.683 1.93835C86.2829 2.53086 86.7565 3.23865 87.0756 4.01909C87.7374 5.71623 87.7374 7.60007 87.0756 9.2972C86.7574 10.0786 86.284 10.7873 85.6841 11.3806C85.0842 11.9738 84.3702 12.4393 83.5853 12.7487C82.7463 13.0812 81.8506 13.2472 80.9482 13.2374Z" fill="#1C3040"/>
<path d="M89.5234 0.435059H98.1367V1.94752H91.1561V6.21345H96.6863V7.72592H91.1561V12.8799H89.5234V0.435059Z" fill="#1C3040"/>
<path d="M99.5312 0.435059H108.145V1.94752H101.164V6.21345H106.694V7.72592H101.164V12.8799H99.5312V0.435059Z" fill="#1C3040"/>
<path d="M111.172 0.435059H109.539V12.8799H111.172V0.435059Z" fill="#1C3040"/>
<path d="M119.769 13.2493C118.862 13.2583 117.963 13.0924 117.12 12.7606C116.336 12.4512 115.623 11.9854 115.026 11.3917C114.433 10.7956 113.965 10.0877 113.649 9.30911C112.982 7.61299 112.982 5.72712 113.649 4.031C113.965 3.25354 114.433 2.54688 115.026 1.95233C115.622 1.35691 116.335 0.890887 117.12 0.583352C118.521 0.0496124 120.05 -0.0530316 121.51 0.288611C121.996 0.407116 122.467 0.58015 122.914 0.804407C123.308 1.00218 123.676 1.247 124.011 1.53349C124.307 1.78669 124.579 2.06572 124.826 2.36729C125.373 3.0313 125.78 3.799 126.024 4.62435H124.422C124.193 4.06893 123.867 3.55827 123.46 3.11576C123.269 2.91669 123.063 2.7326 122.844 2.56507C122.597 2.37696 122.33 2.21575 122.049 2.08418C121.724 1.93272 121.383 1.817 121.033 1.73903C120.628 1.64603 120.214 1.60047 119.8 1.6033C119.114 1.59717 118.434 1.72087 117.795 1.96784C117.203 2.19921 116.666 2.55042 116.216 2.99942C115.768 3.45845 115.417 4.00322 115.185 4.60109C114.688 5.93706 114.688 7.40693 115.185 8.74291C115.417 9.33959 115.768 9.88308 116.216 10.3407C116.666 10.7897 117.203 11.1409 117.795 11.3723C118.433 11.6209 119.114 11.7446 119.8 11.7368C120.227 11.741 120.652 11.6928 121.068 11.5933C121.429 11.5052 121.779 11.375 122.111 11.2055C122.402 11.063 122.675 10.8873 122.925 10.682C123.148 10.4977 123.358 10.2982 123.554 10.0847C123.972 9.59707 124.298 9.03722 124.515 8.43265H126.144C125.871 9.30342 125.441 10.117 124.876 10.8332C124.622 11.1535 124.341 11.4507 124.034 11.7213C123.696 12.0216 123.324 12.2819 122.925 12.4969C122.481 12.7337 122.01 12.916 121.521 13.0399C120.959 13.1815 120.38 13.2506 119.8 13.2454" fill="#1C3040"/>
<path d="M127.914 0.435059H136.799V1.94752H129.547V5.86055H135.438V7.36913H129.547V11.3714H136.799V12.8799H127.914V0.435059Z" fill="#1C3040"/>
<path d="M70.6166 2.16538H71.21C71.2474 2.17059 71.2855 2.16745 71.3216 2.15618C71.3576 2.14492 71.3908 2.12581 71.4186 2.10023C71.4464 2.07465 71.4682 2.04324 71.4824 2.00823C71.4966 1.97323 71.5029 1.93551 71.5009 1.89779C71.5009 1.74266 71.4039 1.63795 71.21 1.63795H70.6166V2.16538ZM71.1906 1.24239C71.2827 1.23335 71.3756 1.24301 71.4638 1.27078C71.552 1.29855 71.6337 1.34384 71.7039 1.40397C71.7742 1.4641 71.8316 1.5378 71.8727 1.62066C71.9137 1.70352 71.9377 1.79383 71.943 1.88615C71.9441 2.00383 71.9119 2.11942 71.8501 2.2196C71.7884 2.31977 71.6996 2.40046 71.5939 2.45236L71.9042 2.97202H71.4117L71.1906 2.56094H70.6166V2.97202H70.1629V1.22687L71.1906 1.24239ZM70.9696 3.54986C71.1602 3.55946 71.3507 3.52977 71.5293 3.46265C71.708 3.39552 71.8709 3.29237 72.008 3.15963C72.1451 3.02689 72.2535 2.86739 72.3263 2.69101C72.3992 2.51463 72.435 2.32515 72.4316 2.13435C72.4291 1.94594 72.3891 1.75992 72.314 1.58713C72.2389 1.41434 72.1301 1.25823 71.994 1.12792C71.8579 0.997603 71.6972 0.895682 71.5214 0.828111C71.3455 0.76054 71.1579 0.728674 70.9696 0.734354C70.7847 0.734354 70.6016 0.770762 70.4308 0.841508C70.26 0.912255 70.1048 1.01595 69.9741 1.14668C69.8434 1.2774 69.7397 1.43258 69.669 1.60338C69.5982 1.77418 69.5618 1.95723 69.5618 2.1421C69.5618 2.32697 69.5982 2.51004 69.669 2.68083C69.7397 2.85163 69.8434 3.00681 69.9741 3.13754C70.1048 3.26826 70.26 3.37196 70.4308 3.4427C70.6016 3.51345 70.7847 3.54986 70.9696 3.54986ZM70.9696 0.261223C71.2212 0.255557 71.4714 0.300037 71.7057 0.392071C71.9399 0.484106 72.1535 0.621852 72.334 0.797281C72.5145 0.97271 72.6583 1.18231 72.7569 1.41386C72.8556 1.64542 72.9071 1.89429 72.9086 2.14598C72.9194 2.53162 72.8149 2.91172 72.6085 3.23766C72.4021 3.5636 72.1032 3.82056 71.75 3.97568C71.3968 4.13081 71.0053 4.17704 70.6257 4.10846C70.246 4.03989 69.8954 3.85962 69.6188 3.59072C69.3422 3.32183 69.152 2.97653 69.0727 2.59898C68.9934 2.22143 69.0285 1.82881 69.1735 1.47132C69.3185 1.11383 69.5669 0.807732 69.8868 0.592167C70.2068 0.376602 70.5838 0.261374 70.9696 0.261223Z" fill="#141416"/>
<path d="M6.57729 13.2025C5.91787 13.2096 5.25972 13.1432 4.61497 13.0047C4.0803 12.8947 3.55988 12.7243 3.06372 12.4967C2.64514 12.3098 2.25378 12.0672 1.90029 11.7753C1.60103 11.5213 1.33053 11.2352 1.09363 10.9222C0.560441 10.2551 0.186411 9.4752 0 8.64182H4.63047C4.70175 8.88852 4.8203 9.11902 4.97951 9.32049C5.14333 9.5084 5.34225 9.66253 5.56511 9.77424C5.8794 9.92402 6.22557 9.99458 6.57341 9.97978C6.94788 10.0125 7.32378 9.93572 7.6554 9.75872C7.7425 9.70754 7.8159 9.63599 7.86926 9.5502C7.92262 9.46441 7.95438 9.36696 7.96179 9.2662C7.95869 9.16193 7.92703 9.06051 7.87028 8.97298C7.81352 8.88545 7.73383 8.81518 7.63989 8.76981C7.36925 8.61476 7.07992 8.49486 6.77894 8.41301C6.41828 8.30443 6.00333 8.19972 5.55347 8.09114C5.1036 7.98255 4.63435 7.86233 4.16509 7.72659C3.69221 7.58931 3.22851 7.42222 2.77674 7.22631C2.33594 7.04129 1.92441 6.79307 1.55513 6.48947C1.20008 6.19324 0.90742 5.8294 0.694174 5.41911C0.465815 4.95392 0.354028 4.44018 0.368426 3.92216C0.375189 3.41889 0.508559 2.92541 0.756238 2.48725C1.03666 1.9902 1.42332 1.56116 1.88864 1.23075C2.45096 0.832838 3.07635 0.532596 3.73851 0.342654C4.57103 0.100945 5.43518 -0.0141033 6.30194 0.00137789C6.90897 -0.00361936 7.51482 0.0561805 8.10916 0.179768C8.60052 0.285637 9.07901 0.444268 9.5363 0.652899C9.92157 0.832911 10.2825 1.06095 10.6105 1.33157C10.8932 1.56481 11.1529 1.82453 11.3861 2.10719C11.876 2.72533 12.2289 3.44047 12.4216 4.20526H7.7795C7.74363 4.02294 7.66075 3.85316 7.53906 3.71274C7.42476 3.56749 7.28062 3.44846 7.11636 3.36371C6.8909 3.25396 6.64166 3.20198 6.39113 3.21246C6.06778 3.18436 5.74322 3.25035 5.45651 3.40248C5.37881 3.44634 5.3135 3.50919 5.2667 3.58516C5.2199 3.66112 5.19315 3.74772 5.18892 3.83684C5.18892 4.05014 5.37508 4.22465 5.75514 4.32548C6.13519 4.42631 6.60056 4.55429 7.15901 4.67452C7.71746 4.79474 8.32243 4.93434 8.98559 5.1011C9.62099 5.26063 10.2335 5.50041 10.8083 5.81467C11.3566 6.11234 11.8362 6.52194 12.2161 7.01689C12.6113 7.56805 12.8106 8.23567 12.7823 8.91329C12.7846 9.47442 12.6515 10.0278 12.3945 10.5266C12.113 11.0625 11.7156 11.5289 11.231 11.8917C10.6446 12.3166 9.98837 12.6355 9.29198 12.8341C8.41986 13.0844 7.51554 13.2046 6.6083 13.1909" fill="#141416"/>
<path d="M16.6476 4.21726H12.7578V0.37793H25.1639V4.21726H21.278V12.8461H16.6476V4.21726Z" fill="#141416"/>
<path d="M41.0469 0.37793H46.2319L49.6951 6.25327V0.37793H54.2867V12.8461H49.1017L45.6424 6.96685V12.8461H41.0469V0.37793Z" fill="#141416"/>
<path d="M55.8672 0.37793H66.7492V3.93804H60.4977V5.0976H66.7492V8.12641H60.4977V9.28208H66.7492V12.8461H55.8672V0.37793Z" fill="#141416"/>
<path d="M32.6456 9.26214C32.1271 9.24236 31.6258 9.07049 31.2043 8.76793C30.7827 8.46538 30.4595 8.0455 30.2748 7.56059C30.0901 7.07568 30.0521 6.54715 30.1656 6.04081C30.279 5.53448 30.539 5.0727 30.9129 4.71299C31.2869 4.35328 31.7584 4.11151 32.2688 4.0178C32.7792 3.92409 33.3058 3.98258 33.7832 4.18597C34.2606 4.38937 34.6676 4.7287 34.9535 5.16171C35.2394 5.59471 35.3917 6.10225 35.3913 6.62115C35.377 7.33534 35.0799 8.01467 34.565 8.50987C34.0502 9.00507 33.3598 9.27565 32.6456 9.26214ZM39.5331 4.03444C39.1927 3.24072 38.6878 2.52826 38.0517 1.94414C37.3766 1.32598 36.5857 0.847534 35.7248 0.536382C33.7345 -0.156659 31.5683 -0.156659 29.578 0.536382C28.7169 0.847068 27.926 1.32557 27.2511 1.94414C26.615 2.52826 26.1101 3.24072 25.7697 4.03444C25.4267 4.84961 25.25 5.72511 25.25 6.60951C25.25 7.49392 25.4267 8.3694 25.7697 9.18458C26.109 9.98004 26.614 10.694 27.2511 11.2788C27.9279 11.8947 28.7183 12.3729 29.578 12.6865C31.5693 13.3741 33.7336 13.3741 35.7248 12.6865C36.5843 12.3724 37.3746 11.8943 38.0517 11.2788C38.6888 10.694 39.1938 9.98004 39.5331 9.18458C39.8761 8.3694 40.0529 7.49392 40.0529 6.60951C40.0529 5.72511 39.8761 4.84961 39.5331 4.03444Z" fill="#141416"/>
</svg>

<svg xmlns="http://www.w3.org/2000/svg" width="137" height="14" fill="none" viewBox="0 0 137 14"><path fill="#1c3040" d="M80.948 11.725a5.3 5.3 0 0 0 2.001-.365 4.57 4.57 0 0 0 2.614-2.629 6 6 0 0 0 0-4.142 4.7 4.7 0 0 0-1.035-1.601 4.6 4.6 0 0 0-1.579-1.032 5.69 5.69 0 0 0-4.006 0c-.592.23-1.13.582-1.578 1.032a4.7 4.7 0 0 0-1.032 1.601 5.95 5.95 0 0 0 0 4.142c.23.598.582 1.142 1.032 1.598.449.45.986.801 1.578 1.031.639.25 1.32.373 2.005.365m0 1.512a7 7 0 0 1-2.649-.488 6.2 6.2 0 0 1-2.094-1.37 6.3 6.3 0 0 1-1.376-2.082 7.2 7.2 0 0 1 0-5.278 6.3 6.3 0 0 1 1.376-2.079A6.1 6.1 0 0 1 78.3.571 7 7 0 0 1 80.95.08a7 7 0 0 1 2.636.492 6.25 6.25 0 0 1 3.49 3.448 7.26 7.26 0 0 1 0 5.278 6.24 6.24 0 0 1-3.49 3.452 7 7 0 0 1-2.637.488M89.523.435h8.614v1.513h-6.98v4.265h5.53v1.513h-5.53v5.154h-1.634zM99.531.435h8.614v1.513h-6.981v4.265h5.53v1.513h-5.53v5.154h-1.633zM111.172.435h-1.633V12.88h1.633zM119.769 13.25a7 7 0 0 1-2.649-.49 6.2 6.2 0 0 1-2.094-1.368 6.3 6.3 0 0 1-1.377-2.083 7.2 7.2 0 0 1 0-5.278 6.3 6.3 0 0 1 1.377-2.079A6.1 6.1 0 0 1 117.12.583a7.5 7.5 0 0 1 4.39-.294c.486.118.957.291 1.404.515q.593.298 1.097.73.444.38.815.833a6.4 6.4 0 0 1 1.198 2.257h-1.602a5.1 5.1 0 0 0-.962-1.508 5.4 5.4 0 0 0-.616-.55 4.4 4.4 0 0 0-.795-.482 5.347 5.347 0 0 0-2.249-.48 5.4 5.4 0 0 0-2.005.364 4.6 4.6 0 0 0-1.579 1.031 4.8 4.8 0 0 0-1.031 1.602 5.94 5.94 0 0 0 0 4.142 4.7 4.7 0 0 0 1.031 1.598c.45.449.987.8 1.579 1.031a5.4 5.4 0 0 0 2.005.365q.642.006 1.268-.144a4.8 4.8 0 0 0 1.043-.387q.438-.216.814-.524.335-.277.629-.597a5.3 5.3 0 0 0 .961-1.652h1.629a7.5 7.5 0 0 1-1.268 2.4q-.381.482-.842.888-.509.451-1.109.776c-.444.237-.915.419-1.404.543a6.8 6.8 0 0 1-1.721.205M127.914.435h8.885v1.513h-7.252V5.86h5.891v1.508h-5.891v4.002h7.252v1.509h-8.885z"/><path fill="#141416" d="M70.617 2.165h.593a.256.256 0 0 0 .29-.267c0-.155-.096-.26-.29-.26h-.593zm.574-.923a.686.686 0 0 1 .752.644.62.62 0 0 1-.35.566l.311.52h-.492l-.221-.411h-.574v.411h-.454V1.227zM70.97 3.55a1.39 1.39 0 0 0 1.462-1.416 1.42 1.42 0 0 0-1.462-1.4 1.408 1.408 0 1 0 0 2.816m0-3.289a1.896 1.896 0 0 1 1.939 1.885 1.94 1.94 0 1 1-1.94-1.885M6.577 13.203a9 9 0 0 1-1.962-.198 7.2 7.2 0 0 1-1.551-.508 5 5 0 0 1-1.164-.722q-.45-.382-.806-.853A5.6 5.6 0 0 1 0 8.642h4.63c.072.247.19.477.35.678.163.188.362.343.585.454.314.15.66.22 1.008.206a1.94 1.94 0 0 0 1.082-.221.62.62 0 0 0 .307-.493.57.57 0 0 0-.322-.496 3.7 3.7 0 0 0-.861-.357c-.36-.109-.776-.213-1.226-.322a32 32 0 0 1-1.388-.364 12 12 0 0 1-1.388-.5 5 5 0 0 1-1.222-.738 3.5 3.5 0 0 1-.86-1.07 3.2 3.2 0 0 1-.327-1.497c.007-.503.14-.997.388-1.435.28-.497.667-.926 1.133-1.256a6.1 6.1 0 0 1 1.85-.888A8.6 8.6 0 0 1 6.302 0 8.5 8.5 0 0 1 8.109.18q.74.16 1.427.473c.386.18.747.408 1.075.679q.424.35.775.775c.49.618.843 1.333 1.036 2.098H7.779a1.07 1.07 0 0 0-.24-.492 1.3 1.3 0 0 0-.423-.35 1.5 1.5 0 0 0-.725-.15 1.7 1.7 0 0 0-.934.19.53.53 0 0 0-.268.434c0 .213.186.388.566.488.38.101.846.23 1.404.35s1.163.26 1.827.426c.635.16 1.247.4 1.822.714a4.45 4.45 0 0 1 1.408 1.202c.395.551.595 1.219.566 1.896a3.5 3.5 0 0 1-.387 1.614 4.1 4.1 0 0 1-1.164 1.365 6.2 6.2 0 0 1-1.939.942c-.872.25-1.776.37-2.684.357M16.648 4.217h-3.89V.377h12.406v3.84h-3.886v8.63h-4.63zM41.047.378h5.185l3.463 5.875V.378h4.592v12.468h-5.185l-3.46-5.88v5.88h-4.595zM55.867.378H66.75v3.56h-6.251v1.16h6.251v3.028h-6.251v1.156h6.251v3.564H55.867zM32.646 9.262a2.645 2.645 0 1 1 2.745-2.64 2.695 2.695 0 0 1-2.745 2.64m6.887-5.228a6.1 6.1 0 0 0-1.481-2.09A6.9 6.9 0 0 0 35.725.536a9.35 9.35 0 0 0-6.147 0 6.9 6.9 0 0 0-2.327 1.408 6.1 6.1 0 0 0-1.481 2.09 6.64 6.64 0 0 0 0 5.15c.339.796.844 1.51 1.481 2.095a7 7 0 0 0 2.327 1.408 9.4 9.4 0 0 0 6.147 0 7.1 7.1 0 0 0 2.327-1.408 6.1 6.1 0 0 0 1.481-2.094 6.64 6.64 0 0 0 0-5.15"/></svg>
